X: 31534
T: Paddy's Trip To Scotland
R: reel
M: 4/4
K: Dmajor
(3ABc|:dA (3AAA BAGF|GA (3Bcd cABc|(3ddd ed cABc|dfed cABc|
dA (3AAA BAGF|GA (3Bcd cABc|(3ddd ed cABc|1 dfec d2 (3ABc:|2 dfec dAFG||
|:Adfd Adfd|Adfd dcBc|Acec Acec|Acec dcBc|
Adfd Adfd|Adfd d/e/dc B^g-|aA (3AAA dcBA|1 (3Bcd ec dcBc:|2 (3Bcd ec d2 (3ABc||

